X: 42515
T: Wheels Of The World, The
R: reel
M: 4/4
K: Dmixolydian
FA|:dD (3FED FAGF|EC (3CCC EFGA|dD (3FED FAGF|EDCE D2 FA|
dD (3FED FAGF|EDCD EFGc|AddB cBAG|1 ECGE D2 FA:|2 ECGE D2 AB||
|:dAdf afdf|ecgc acge|dAdf afdf|edce d2 AB|(3ddd df afdf|
ecgc acge|abag efge|1 fage d2 AB:|2 fage d2 FA||

